sources/design/Outline/k.svg

<svg:svg xmlns:cc="http://creativecommons.org/ns#" xmlns:dc="http://purl.org/dc/elements/1.1/" xmlns:inkscape="http://www.inkscape.org/namespaces/inkscape" xmlns:rdf="http://www.w3.org/1999/02/22-rdf-syntax-ns#" xmlns:sodipodi="http://sodipodi.sourceforge.net/DTD/sodipodi-0.dtd" xmlns:svg="http://www.w3.org/2000/svg" xml:space="preserve" width="1000" height="1000" version="1.1" style="clip-rule:evenodd;fill-rule:evenodd;image-rendering:optimizeQuality;shape-rendering:geometricPrecision;text-rendering:geometricPrecision" viewBox="0 0 1000 1000" id="svg10" sodipodi:docname="k.svg" inkscape:version="1.1.1 (3bf5ae0d25, 2021-09-20)"><svg:metadata id="metadata14"><rdf:RDF><cc:Work rdf:about=""><dc:format>image/svg+xml</dc:format><dc:type rdf:resource="http://purl.org/dc/dcmitype/StillImage" /></cc:Work></rdf:RDF></svg:metadata><sodipodi:namedview pagecolor="#ffffff" bordercolor="#666666" borderopacity="1" objecttolerance="10" gridtolerance="10" guidetolerance="10" inkscape:pageopacity="0" inkscape:pageshadow="2" inkscape:window-width="1920" inkscape:window-height="1009" id="namedview12" showgrid="false" inkscape:zoom="0.84890884" inkscape:cx="278.59293" inkscape:cy="449.98942" inkscape:window-x="0" inkscape:window-y="0" inkscape:window-maximized="1" inkscape:current-layer="svg10" showguides="true" inkscape:guide-bbox="true" inkscape:document-rotation="0" inkscape:pagecheckerboard="0"><sodipodi:guide position="0,1000" orientation="0,1" id="guide16" inkscape:label="" inkscape:locked="true" inkscape:color="rgb(0,0,255)" /><sodipodi:guide position="1763.3122,2036.1693" orientation="1000,0" id="guide18" /><sodipodi:guide position="0,200" orientation="0,1" id="guide20" inkscape:label="base" inkscape:locked="true" inkscape:color="rgb(0,0,255)" /><inkscape:grid type="xygrid" id="grid24" originx="-473.37552" originy="-489.69235" /><sodipodi:guide position="0,0" orientation="0,1" id="guide34" inkscape:label="bottom" inkscape:locked="true" inkscape:color="rgb(0,0,255)" /><sodipodi:guide position="225.05109,1693.3186" orientation="0,1" id="guide44" inkscape:label="" inkscape:locked="false" inkscape:color="rgb(0,0,255)" /><sodipodi:guide position="0,900" orientation="0,1" id="guide46" inkscape:label="" inkscape:locked="true" inkscape:color="rgb(0,0,255)" /><sodipodi:guide position="501.84713,557.21105" orientation="1,0" id="guide841" inkscape:label="width" />    <sodipodi:guide position="439.38758,799.74293" orientation="0,-1" id="guide853" /></sodipodi:namedview>
 <svg:defs id="defs4"><inkscape:path-effect effect="fillet_chamfer" id="path-effect856" is_visible="true" lpeversion="1" satellites_param="F,0,1,1,0,27.896097,0,1 @ F,0,1,1,0,27.896097,0,1 @ F,0,0,1,0,0,0,1 @ F,0,0,1,0,0,0,1 @ F,0,0,1,0,0,0,1 @ F,0,1,1,0,27.896097,0,1 @ F,0,1,1,0,27.896097,0,1 @ F,0,0,1,0,0,0,1 @ F,0,0,1,0,0,0,1 | F,0,1,1,0,27.896097,0,1 @ F,0,1,1,0,27.896097,0,1 @ F,0,0,1,0,0,0,1 @ F,0,0,1,0,0,0,1 @ F,0,0,1,0,0,0,1 @ F,0,0,1,0,0,0,1 @ F,0,1,1,0,27.896097,0,1 @ F,0,1,1,0,27.896097,0,1 @ F,0,0,1,0,0,0,1 @ F,0,0,1,0,0,0,1 @ F,0,0,1,0,0,0,1 @ F,0,0,1,0,0,0,1 @ F,0,0,1,0,0,0,1" unit="px" method="auto" mode="F" radius="0" chamfer_steps="1" flexible="false" use_knot_distance="true" apply_no_radius="true" apply_with_radius="true" only_selected="true" hide_knots="false" /><inkscape:path-effect effect="fillet_chamfer" id="path-effect855" is_visible="true" lpeversion="1" satellites_param="F,0,0,1,0,0,0,1 @ F,0,0,1,0,0,0,1 @ F,0,0,1,0,0,0,1 @ F,0,0,1,0,0,0,1 @ F,0,0,1,0,0,0,1 @ F,0,0,1,0,0,0,1 @ F,0,0,1,0,46.68447,0,1 @ F,0,0,1,0,20.009081,0,1 | F,0,0,1,0,25.375773,0,1 @ F,0,0,1,0,24.630949,0,1 @ F,0,0,1,0,0,0,1 @ F,0,1,1,0,0.72506479,0,1 @ F,0,0,1,0,0,0,1 @ F,0,0,1,0,37.729313,0,1 @ F,0,0,1,0,41.841239,0,1 @ F,0,0,1,0,0,0,1 @ F,0,0,1,0,0,0,1 | F,0,0,1,0,30.086877,0,1 @ F,0,0,1,0,42.315338,0,1 @ F,0,0,1,0,0,0,1 @ F,0,0,1,0,0,0,1 @ F,0,0,1,0,0,0,1 @ F,0,0,1,0,0,0,1 @ F,0,0,1,0,0,0,1" unit="px" method="auto" mode="F" radius="0" chamfer_steps="1" flexible="false" use_knot_distance="true" apply_no_radius="true" apply_with_radius="true" only_selected="true" hide_knots="false" /><inkscape:path-effect effect="spiro" id="path-effect853" is_visible="true" lpeversion="1" /><inkscape:path-effect effect="spiro" id="path-effect907" is_visible="true" lpeversion="1" /><inkscape:path-effect effect="spiro" id="path-effect888" is_visible="true" lpeversion="1" /><inkscape:path-effect effect="spiro" id="path-effect869" is_visible="true" lpeversion="1" /><inkscape:path-effect effect="spiro" id="path-effect885" is_visible="true" lpeversion="1" /><inkscape:path-effect effect="spiro" id="path-effect849" is_visible="true" lpeversion="1" /><inkscape:path-effect effect="spiro" id="path-effect851" is_visible="true" lpeversion="1" />
  <svg:style type="text/css" id="style2">
   
    .fil0 {fill:#EF7F1A;fill-rule:nonzero}
   
  </svg:style>
 <inkscape:path-effect effect="spiro" id="path-effect1214" is_visible="true" lpeversion="1" /><inkscape:path-effect effect="spiro" id="path-effect1195" is_visible="true" lpeversion="1" /><inkscape:path-effect effect="spiro" id="path-effect992" is_visible="true" lpeversion="1" /><inkscape:path-effect effect="spiro" id="path-effect1060" is_visible="true" lpeversion="1" /><inkscape:path-effect effect="spiro" id="path-effect1047" is_visible="true" lpeversion="1" /><inkscape:path-effect effect="spiro" id="path-effect1085" is_visible="true" lpeversion="1" /><inkscape:path-effect effect="spiro" id="path-effect1286" is_visible="true" lpeversion="1" /></svg:defs>
 
<svg:g id="path867-6"><svg:path style="color:#000000;fill:#1a5fb4;fill-rule:nonzero;stroke-linecap:round;stroke-linejoin:round;-inkscape-stroke:none;paint-order:fill stroke markers" d="M 126.82031,-25.306641 C 122.91058000000001,-25.418293 118.98230000000001,-25.118926 115.12305,-24.402344 L 29.951172,-8.5878906 C -1.0086921,-2.8392914 -21.19585,31.045132 -12.896484,60.787109 C -5.5941104,86.956223 0.21685403,113.54378 4.4960937,140.37109 C 31.487722,309.58643 -3.449497,487.10595 -7.90625,669.04883 C -8.7585098,703.84156 -8.4352621,738.6631 -6.9375,773.43359 C -5.5663321,805.26521 25.337791000000003,830.21133 56.546875,825.50781 L 173.89453,807.82227 C 188.50997,805.61958 204.93929,796.49206 211.7207,780.21094 C 218.50212,763.9298200000001 213.82873,746.7977000000001 205.89061999999998,734.7578100000001 C 189.30787999999998,709.6064500000001 175.81922999999998,682.3820700000001 165.89061999999998,653.96094 C 159.14052999999998,634.6384400000001 154.09783,614.7345300000001 150.34179999999998,594.42187 C 165.43185999999997,605.62836 180.03569999999996,617.48564 193.93749999999997,630.12109 C 231.38652999999996,664.15881 264.40261999999996,703.30485 292.54102,745.78906 C 302.0483,760.1434499999999 310.99794,774.8708799999999 319.36133,789.9218699999999 C 333.37468,815.14073 356.61214,830.0 386.53711,830.0 L 474.36914,830.0 C 489.3555,830.0 506.70431,823.58487 516.01562,808.34375 C 525.32694,793.10263 522.94118,774.12091 515.61523,760.81445 C 480.45968,696.95983 435.18612,638.75558 381.875,589.00977 C 343.77225,553.45523 301.54709,522.47875 256.47852,496.41211 C 268.76969,488.70124 280.79768,480.56379999999996 292.43945,471.88867 C 352.40142000000003,427.20667 402.84837000000005,370.15713999999997 439.98242000000005,305.30859 C 456.15734000000003,277.06174 443.14526000000006,240.17744999999996 414.44922,226.875 L 323.625,184.77148 C 310.07704,178.49114 291.46974,177.49894 277.18945,186.50977 C 262.90917,195.52059 256.31693,210.87040000000002 254.81641000000002,224.92773 C 253.89735000000002,233.53775 252.3325,242.0784 250.14062,250.43945 C 238.97014000000001,293.05008 210.81889,332.45662 177.16797000000003,368.32227 C 167.02973000000003,379.12775 156.50788000000003,389.57733 145.64062,399.65625 C 146.15144,393.57675 146.59558,387.50026 147.17383,381.41992 C 155.60725000000002,292.74211 169.87914,203.01435999999998 175.52344,110.92969 C 177.21579,83.319603 178.11118,55.65944999999999 178.20703,27.998047 C 178.26193,12.150131 171.23209,-3.5742581000000015 159.16406,-13.503906 C 150.11304,-20.951142 138.5495,-24.971683 126.82031,-25.306641 M 118.05859000000001,36.076172 C 117.83342,59.819413 117.08937,83.558326 115.63672000000001,107.25781 C 110.22801000000001,195.49894 96.11426000000002,284.56531 87.44335900000002,375.74023 C 85.07830000000001,400.60894 83.15454400000002,425.89001 82.12109400000001,451.37109 C 76.81596900000001,455.16186 71.44489600000001,458.85542999999996 66.02734400000001,462.48242 C 74.889405,353.3456 81.545733,242.4968 63.748047,130.91992 C 59.368003,103.46065 53.454945,76.255458 46.152344,49.427734 L 118.05859000000001,36.076172 M 312.39258,245.69727 L 385.44141,279.5625 C 352.65004,335.53499 308.57039000000003,385.04142 256.58789,423.77734 C 236.45190000000002,438.78213 215.06869,452.11305999999996 192.83203000000003,463.83007999999995 C 186.36293000000003,460.93299999999994 179.84559000000004,458.14766 173.28906000000003,455.45116999999993 C 189.86260000000004,440.8366199999999 205.79898000000003,425.4972399999999 220.92383000000004,409.37694999999997 C 257.98103000000003,369.88084 293.14499,323.00527 308.17969000000005,265.6543 C 309.90599000000003,259.06917 311.25125,252.40078999999997 312.39258000000007,245.69726999999997 L 312.39258,245.69727 M 193.26562,530.49805 C 247.00256,557.45739 297.02239,591.8989 340.93945,632.87891 C 384.01041,673.0694 421.38103,719.43554 451.66211,770.0 L 386.53711,770.0 C 385.64893,770.0 372.76077,762.49091 371.80859,760.77734 C 362.68958999999995,744.3665 352.93212,728.31162 342.56444999999997,712.6582 C 311.86627,666.30914 275.69241,623.34898 234.29296999999997,585.7207 C 215.60137999999998,568.73177 195.88003999999995,552.89783 175.29882999999995,538.2792999999999 C 181.32912999999996,535.7788499999999 187.32927999999995,533.2125399999999 193.26561999999996,530.4980499999999 L 193.26562,530.49805 M 59.736328000000015,539.30859 C 67.91010400000002,543.29032 76.01998600000002,547.40241 83.99609400000001,551.77148 C 87.62449100000002,592.84871 95.28666800000002,633.78485 109.24805,673.75 C 118.70150000000001,700.81097 131.03025,726.79617 145.70117,751.39453 L 52.86523399999999,765.38477 C 51.620378999999986,733.78033 51.30165299999999,702.13854 52.076171999999985,670.51953 C 53.138289999999984,627.15952 56.195492999999985,583.3953200000001 59.736327999999986,539.3085900000001 L 59.736328000000015,539.30859" id="path102" /></svg:g></svg:svg>

<svg:svg xmlns:cc="http://creativecommons.org/ns#" xmlns:dc="http://purl.org/dc/elements/1.1/" xmlns:inkscape="http://www.inkscape.org/namespaces/inkscape" xmlns:rdf="http://www.w3.org/1999/02/22-rdf-syntax-ns#" xmlns:sodipodi="http://sodipodi.sourceforge.net/DTD/sodipodi-0.dtd" xmlns:svg="http://www.w3.org/2000/svg" xml:space="preserve" width="1000" height="1000" version="1.1" style="clip-rule:evenodd;fill-rule:evenodd;image-rendering:optimizeQuality;shape-rendering:geometricPrecision;text-rendering:geometricPrecision" viewBox="0 0 1000 1000" id="svg10" sodipodi:docname="k.svg" inkscape:version="1.1.1 (3bf5ae0d25, 2021-09-20)"><svg:metadata id="metadata14"><rdf:RDF><cc:Work rdf:about=""><dc:format>image/svg+xml</dc:format><dc:type rdf:resource="http://purl.org/dc/dcmitype/StillImage" /></cc:Work></rdf:RDF></svg:metadata><sodipodi:namedview pagecolor="#ffffff" bordercolor="#666666" borderopacity="1" objecttolerance="10" gridtolerance="10" guidetolerance="10" inkscape:pageopacity="0" inkscape:pageshadow="2" inkscape:window-width="1920" inkscape:window-height="1009" id="namedview12" showgrid="false" inkscape:zoom="0.84890884" inkscape:cx="278.59293" inkscape:cy="449.98942" inkscape:window-x="0" inkscape:window-y="0" inkscape:window-maximized="1" inkscape:current-layer="svg10" showguides="true" inkscape:guide-bbox="true" inkscape:document-rotation="0" inkscape:pagecheckerboard="0"><sodipodi:guide position="0,1000" orientation="0,1" id="guide16" inkscape:label="" inkscape:locked="true" inkscape:color="rgb(0,0,255)" /><sodipodi:guide position="1763.3122,2036.1693" orientation="1000,0" id="guide18" /><sodipodi:guide position="0,200" orientation="0,1" id="guide20" inkscape:label="base" inkscape:locked="true" inkscape:color="rgb(0,0,255)" /><inkscape:grid type="xygrid" id="grid24" originx="-473.37552" originy="-489.69235" /><sodipodi:guide position="0,0" orientation="0,1" id="guide34" inkscape:label="bottom" inkscape:locked="true" inkscape:color="rgb(0,0,255)" /><sodipodi:guide position="225.05109,1693.3186" orientation="0,1" id="guide44" inkscape:label="" inkscape:locked="false" inkscape:color="rgb(0,0,255)" /><sodipodi:guide position="0,900" orientation="0,1" id="guide46" inkscape:label="" inkscape:locked="true" inkscape:color="rgb(0,0,255)" /><sodipodi:guide position="501.84713,557.21105" orientation="1,0" id="guide841" inkscape:label="width" />    <sodipodi:guide position="439.38758,799.74293" orientation="0,-1" id="guide853" /></sodipodi:namedview>
 <svg:defs id="defs4"><inkscape:path-effect effect="fillet_chamfer" id="path-effect856" is_visible="true" lpeversion="1" satellites_param="F,0,1,1,0,27.896097,0,1 @ F,0,1,1,0,27.896097,0,1 @ F,0,0,1,0,0,0,1 @ F,0,0,1,0,0,0,1 @ F,0,0,1,0,0,0,1 @ F,0,1,1,0,27.896097,0,1 @ F,0,1,1,0,27.896097,0,1 @ F,0,0,1,0,0,0,1 @ F,0,0,1,0,0,0,1 | F,0,1,1,0,27.896097,0,1 @ F,0,1,1,0,27.896097,0,1 @ F,0,0,1,0,0,0,1 @ F,0,0,1,0,0,0,1 @ F,0,0,1,0,0,0,1 @ F,0,0,1,0,0,0,1 @ F,0,1,1,0,27.896097,0,1 @ F,0,1,1,0,27.896097,0,1 @ F,0,0,1,0,0,0,1 @ F,0,0,1,0,0,0,1 @ F,0,0,1,0,0,0,1 @ F,0,0,1,0,0,0,1 @ F,0,0,1,0,0,0,1" unit="px" method="auto" mode="F" radius="0" chamfer_steps="1" flexible="false" use_knot_distance="true" apply_no_radius="true" apply_with_radius="true" only_selected="true" hide_knots="false" /><inkscape:path-effect effect="fillet_chamfer" id="path-effect855" is_visible="true" lpeversion="1" satellites_param="F,0,0,1,0,0,0,1 @ F,0,0,1,0,0,0,1 @ F,0,0,1,0,0,0,1 @ F,0,0,1,0,0,0,1 @ F,0,0,1,0,0,0,1 @ F,0,0,1,0,0,0,1 @ F,0,0,1,0,46.68447,0,1 @ F,0,0,1,0,20.009081,0,1 | F,0,0,1,0,25.375773,0,1 @ F,0,0,1,0,24.630949,0,1 @ F,0,0,1,0,0,0,1 @ F,0,1,1,0,0.72506479,0,1 @ F,0,0,1,0,0,0,1 @ F,0,0,1,0,37.729313,0,1 @ F,0,0,1,0,41.841239,0,1 @ F,0,0,1,0,0,0,1 @ F,0,0,1,0,0,0,1 | F,0,0,1,0,30.086877,0,1 @ F,0,0,1,0,42.315338,0,1 @ F,0,0,1,0,0,0,1 @ F,0,0,1,0,0,0,1 @ F,0,0,1,0,0,0,1 @ F,0,0,1,0,0,0,1 @ F,0,0,1,0,0,0,1" unit="px" method="auto" mode="F" radius="0" chamfer_steps="1" flexible="false" use_knot_distance="true" apply_no_radius="true" apply_with_radius="true" only_selected="true" hide_knots="false" /><inkscape:path-effect effect="spiro" id="path-effect853" is_visible="true" lpeversion="1" /><inkscape:path-effect effect="spiro" id="path-effect907" is_visible="true" lpeversion="1" /><inkscape:path-effect effect="spiro" id="path-effect888" is_visible="true" lpeversion="1" /><inkscape:path-effect effect="spiro" id="path-effect869" is_visible="true" lpeversion="1" /><inkscape:path-effect effect="spiro" id="path-effect885" is_visible="true" lpeversion="1" /><inkscape:path-effect effect="spiro" id="path-effect849" is_visible="true" lpeversion="1" /><inkscape:path-effect effect="spiro" id="path-effect851" is_visible="true" lpeversion="1" />
  <svg:style type="text/css" id="style2">
   
    .fil0 {fill:#EF7F1A;fill-rule:nonzero}
   
  </svg:style>
 <inkscape:path-effect effect="spiro" id="path-effect1214" is_visible="true" lpeversion="1" /><inkscape:path-effect effect="spiro" id="path-effect1195" is_visible="true" lpeversion="1" /><inkscape:path-effect effect="spiro" id="path-effect992" is_visible="true" lpeversion="1" /><inkscape:path-effect effect="spiro" id="path-effect1060" is_visible="true" lpeversion="1" /><inkscape:path-effect effect="spiro" id="path-effect1047" is_visible="true" lpeversion="1" /><inkscape:path-effect effect="spiro" id="path-effect1085" is_visible="true" lpeversion="1" /><inkscape:path-effect effect="spiro" id="path-effect1286" is_visible="true" lpeversion="1" /></svg:defs>
 
<svg:g id="path867-6"><svg:path style="color:#000000;fill:#1a5fb4;fill-rule:nonzero;stroke-linecap:round;stroke-linejoin:round;-inkscape-stroke:none" d="m 126.82031,-25.306641 c -3.90973,-0.111652 -7.83801,0.187715 -11.69726,0.904297 L 29.951172,-8.5878906 C -1.0086921,-2.8392914 -21.19585,31.045132 -12.896484,60.787109 -5.5941104,86.956223 0.21685403,113.54378 4.4960937,140.37109 31.487722,309.58643 -3.449497,487.10595 -7.90625,669.04883 c -0.8522598,34.79273 -0.5290121,69.61427 0.96875,104.38476 1.3711679,31.83162 32.275291,56.77774 63.484375,52.07422 L 173.89453,807.82227 c 14.61544,-2.20269 31.04476,-11.33021 37.82617,-27.61133 6.78142,-16.28112 2.10803,-33.41324 -5.83008,-45.45313 -16.58274,-25.15136 -30.07139,-52.37574 -40,-80.79687 -6.75009,-19.3225 -11.79279,-39.22641 -15.54882,-59.53907 15.09006,11.20649 29.6939,23.06377 43.5957,35.69922 37.44903,34.03772 70.46512,73.18376 98.60352,115.66797 9.50728,14.35439 18.45692,29.08182 26.82031,44.13281 C 333.37468,815.14073 356.61214,830 386.53711,830 h 87.83203 c 14.98636,0 32.33517,-6.41513 41.64648,-21.65625 9.31132,-15.24112 6.92556,-34.22284 -0.40039,-47.5293 C 480.45968,696.95983 435.18612,638.75558 381.875,589.00977 343.77225,553.45523 301.54709,522.47875 256.47852,496.41211 c 12.29117,-7.71087 24.31916,-15.84831 35.96093,-24.52344 59.96197,-44.682 110.40892,-101.73153 147.54297,-166.58008 16.17492,-28.24685 3.16284,-65.13114 -25.5332,-78.43359 L 323.625,184.77148 c -13.54796,-6.28034 -32.15526,-7.27254 -46.43555,1.73829 -14.28028,9.01082 -20.87252,24.36063 -22.37304,38.41796 -0.91906,8.61002 -2.48391,17.15067 -4.67579,25.51172 -11.17048,42.61063 -39.32173,82.01717 -72.97265,117.88282 -10.13824,10.80548 -20.66009,21.25506 -31.52735,31.33398 0.51082,-6.0795 0.95496,-12.15599 1.53321,-18.23633 8.43342,-88.67781 22.70531,-178.40556 28.34961,-270.49023 1.69235,-27.610087 2.58774,-55.27024 2.68359,-82.931643 0.0549,-15.847916 -6.97494,-31.5723051 -19.04297,-41.501953 -9.05102,-7.447236 -20.61456,-11.467777 -32.34375,-11.802735 z m -8.76172,61.382813 c -0.22517,23.743241 -0.96922,47.482154 -2.42187,71.181638 -5.40871,88.24113 -19.52246,177.3075 -28.193361,268.48242 -2.365059,24.86871 -4.288815,50.14978 -5.322265,75.63086 -5.305125,3.79077 -10.676198,7.48434 -16.09375,11.11133 C 74.889405,353.3456 81.545733,242.4968 63.748047,130.91992 59.368003,103.46065 53.454945,76.255458 46.152344,49.427734 Z m 194.33399,209.621098 73.04883,33.86523 c -32.79137,55.97249 -76.87102,105.47892 -128.85352,144.21484 -20.13599,15.00479 -41.5192,28.33572 -63.75586,40.05274 -6.4691,-2.89708 -12.98644,-5.68242 -19.54297,-8.37891 16.57354,-14.61455 32.50992,-29.95393 47.63477,-46.07422 37.0572,-39.49611 72.22116,-86.37168 87.25586,-143.72265 1.7263,-6.58513 3.07156,-13.25351 4.21289,-19.95703 z M 193.26562,530.49805 C 247.00256,557.45739 297.02239,591.8989 340.93945,632.87891 384.01041,673.0694 421.38103,719.43554 451.66211,770 h -65.125 c -0.88818,0 -13.77634,-7.50909 -14.72852,-9.22266 -9.119,-16.41084 -18.87647,-32.46572 -29.24414,-48.11914 -30.69818,-46.34906 -66.87204,-89.30922 -108.27148,-126.9375 -18.69159,-16.98893 -38.41293,-32.82287 -58.99414,-47.4414 6.0303,-2.50045 12.03045,-5.06676 17.96679,-7.78125 z m -133.529292,8.81054 c 8.173776,3.98173 16.283658,8.09382 24.259766,12.46289 3.628397,41.07723 11.290574,82.01337 25.251956,121.97852 9.45345,27.06097 21.7822,53.04617 36.45312,77.64453 l -92.835936,13.99024 c -1.244855,-31.60444 -1.563581,-63.24623 -0.789062,-94.86524 1.062118,-43.36001 4.119321,-87.12421 7.660156,-131.21094 z" id="path102" /></svg:g></svg:svg>
